src/shared/assets/icons/ic-eye-on.svg

<svg width="24" height="24" viewBox="0 0 24 24" fill="none" xmlns="http://www.w3.org/2000/svg">
<path d="M12 6C7.90909 6 4.41545 8.4258 3 11.85C4.41545 15.2742 7.90909 17.7 12 17.7C16.0909 17.7 19.5845 15.2742 21 11.85C19.5845 8.4258 16.0909 6 12 6ZM12 15.75C9.74182 15.75 7.90909 14.0028 7.90909 11.85C7.90909 9.6972 9.74182 7.95 12 7.95C14.2582 7.95 16.0909 9.6972 16.0909 11.85C16.0909 14.0028 14.2582 15.75 12 15.75ZM12 9.51C10.6418 9.51 9.54545 10.5552 9.54545 11.85C9.54545 13.1448 10.6418 14.19 12 14.19C13.3582 14.19 14.4545 13.1448 14.4545 11.85C14.4545 10.5552 13.3582 9.51 12 9.51Z" fill="currentColor"/>
</svg>

<svg xmlns="http://www.w3.org/2000/svg" fill="none" viewBox="0 0 24 24"><path fill="currentColor" d="M12 6c-4.09 0-7.585 2.426-9 5.85 1.415 3.424 4.91 5.85 9 5.85s7.584-2.426 9-5.85C19.584 8.426 16.09 6 12 6m0 9.75c-2.258 0-4.09-1.747-4.09-3.9s1.832-3.9 4.09-3.9 4.09 1.747 4.09 3.9-1.832 3.9-4.09 3.9m0-6.24c-1.358 0-2.455 1.045-2.455 2.34s1.097 2.34 2.455 2.34 2.454-1.045 2.454-2.34S13.359 9.51 12 9.51"/></svg>
